icon-themes/breeze_svg/cmd/lc_arrowshapes.circular-arrow.svg

<svg viewBox="0 0 24 24" xmlns="http://www.w3.org/2000/svg"><path d="m11 6.5c-3.86599 0-7 3.134-7 7h4c0-1.65686 1.34314-3 3-3 1.65685 0 3 1.34314 3 3h-2l4 4 4-4h-2c0-3.866-3.13401-7-7-7z" fill="#4d4d4d"/></svg>

<svg xmlns="http://www.w3.org/2000/svg" viewBox="0 0 24 24">
 <path 
     style="fill:#4d4d4d" 
     d="M 11 6.5 C 7.13401 6.5 4 9.634 4 13.5 L 8 13.5 C 8 11.84314 9.34314 10.5 11 10.5 C 12.65685 10.5 14 11.84314 14 13.5 L 12 13.5 L 16 17.5 L 20 13.5 L 18 13.5 C 18 9.634 14.86599 6.5 11 6.5 z "
     />
 </svg>
